X: 4
T: Paddy Clancy's
R: jig
M: 6/8
L: 1/8
K: Dmaj
f||:afd edB|dcB AAA|dcd ede|fdf efg|afd edB|dcB AAA|dcd ede|1 fdc d2f:|2 fdc d2e||fff ggg|fff fed|fff gfg|afd e2d|f2f ggg|faf fed|fff ede|1 fdc d2e:|2 fdc d2f||


Tune 832	Setting 13989

